X:1
T:Title
%%score { 1 | 2 }
L:1/8
M:3/4
K:Ab
V:1 treble nm="Grand Piano"
V:2 bass 
V:1
 z2 z2[Q:1/4=100] [CE]2 | [Ec]3 [Ec] [CA][DB] | [CA]4 [EA]2 | [FA]3 [=EG] [FA][DF] | [CE]4 [CE]2 | %5
 AG B2 B2 | BA c2 [Ec]2 | [=DB]3 [DB] [DB][Dc] | B4 B2 | d3 d FG | [DB][CA] [CA]2 [EA]2 | %11
 [FA]3 [FB] [FA][DF] | [CE]4 [CE]2 | [CE][CA] [Ec]2 [_Ge]2 | [Fe][Fd] [Fd]2 [FB]2 | A3 c cB | %16
[M:2/4] [CA]4 |[M:1/4] c2 |[M:3/4] e3 e [EA]B | c4 c2 | e3 e c[EA] |[M:2/4] [EB]4 |[M:1/4] [DE]2 | %23
[M:3/4] [CE][CA] [Ec]2 [_Ge]2 | [Fe][Fd] [Fd]2 [FB]2 | A3 c cB |[M:2/4] [CA]4 |] %27
V:2
 z2 z2 [A,,A,]2 | [A,,A,]3 [A,,A,] [A,,E,][A,,E,] | [A,,E,]4 [C,A,]2 | %3
 [D,A,]3 [D,A,] [D,A,][D,A,] | [A,,A,]4 [A,,A,]2 | [E,C][E,B,] [E,G,D]2 [E,G,D]2 | %6
 [A,D][A,C] [A,E]2 [A,,A,]2 | [B,,F,]3 [B,,F,] [B,,F,][B,,A,] | [E,G,E]4 [E,G,E]2 | %9
 [E,B,E]3 [E,B,E] [E,B,D][E,B,D] | [A,,A,][A,,E,] [A,,E,]2 [C,A,]2 | [D,A,]3 [D,A,] [D,A,][D,A,] | %12
 [A,,A,]4 [A,,A,]2 | [A,,A,][A,,A,] [A,,A,]2 [C,A,]2 | [D,A,][D,A,] [D,A,]2 [D,D]2 | %15
 [E,CE]3 [E,A,E] [E,A,E][E,G,D] |[M:2/4] [A,,A,]4 |[M:1/4] [A,E]2 | %18
[M:3/4] [A,CE]3 [A,CE] [C,A,][E,G,E] | [A,E]4 [A,E]2 | [A,CA]3 [A,CA] [A,E][K:bass][C,A,] | %21
[M:2/4] [E,G,]4 |[M:1/4] [E,G,]2 |[M:3/4] [A,,A,][A,,A,] [A,,A,]2 [C,A,]2 | %24
 [D,A,][D,A,] [D,A,]2 [D,D]2 | [E,CE]3 [E,A,E] [E,A,E][E,G,D] |[M:2/4] [A,,A,]4 |] %27

